!!!SOCIAL_FUNCTION:	war songs
!!!PDT:	1909
!!!OTL: No_154_(war_songs).krn
!!!REG: Great_Lakes
!!!LANG: Non-Tone
!!!LING_GROUP: Algonquin
**kern
*staff1
=1-
*clefG2
*k[b-e-]
*M2/4
8b-\L
8b-\J
8b-\L
8b-\J
=2
4b-\
8cc\L
8b-\J
=3
8g/L
8g/J
4g/
=4
2g/
=5||
*M3/4
2g/
4e-/
=6||
*M2/4
8g/L
8g/J
8g/L
8g/J
=7
4g/
4b-\
=8
8g/L
8g/J
4g/
=9
2g/
=10
4e-/
12d/L
12d/
12e-/J
=11
4d/
12e-/L
12d/
24B-/L
24G/JJ
=12
8.G/L
16G/Jk
4G/
=13
4.G/
24B-/LL
24G/
24Bn/JJ
=14
4A/
8B-/L
8A/J
=15
8G/L
16.G/L
32G/JJk
4G/
=16
2G/
==
*-
